X: 9835
T: Dennis Watson's
R: reel
M: 4/4
K: Dmajor
dB|:AF3 GABd|AGFD E2FE|D2DE FA3|GABd cdef|
dA3 GABd|AGFD E2FG|A3G FDDF|1 EDEF D3B:|2 EDEF D3g||
|:fedf eedB|AF3 EFDE|EDD2 ABdf|
[1 eedf eedf|fedf eedB|AGFD E2FG|A3G FDDF|EDEF D3g:|
[2 eedf ezdf|afge fgfe|defd g2fe|dABG FDDF|EDEF D3B||

